X: 8
T: Frank's
C: John McCusker
I: RJ R-168
M: C|
L: 1/8
R: reel
K: A
[| "A"AcBA "D"F2AF | "A"EFAB cABc | "D"d3f "A/C#"ecAe | "D"faec "E7"(3BcdecB | 
|  "A"AcBA "D"F2AF | "A"EFAB cABc | "D"d3f "A"ecAc | "E7"BAGB "A"A2 (3EFG ||
|| "A"AcBA "D"F2AF | "A"EFAB cABc | "Bm"d2df "A/C#"ecAe | "D"faec "E7"(3Bcd cB | 
|  "A"AcBA "D"EFAF | "A"EFAB cABc | "D"df (3fff "A"ecAc | "E7"BAGB "A"Aefg |]
[| "A"aAAg AAfA | ef-fe cABc | "Bm7"d3f "A/C#"ecAc | "D"Bcde "E7"fe (3efg | 
|  "A"aAAg AAfA | ef-fe cABc | "D"df (3fff "A"ecAc | "E7"BAGB "A"Aefg ||
|| "A"aAAg AAfA | ef-fe cABc | "Bm7"d3f "A/C#"eAce | "D"faec "E7"(3Bcd cB | 
|  "A"AcBA "D"F3A | "A/C#"EFAB "A"cABc | "D"d3f "A"ecAc | "E7"BAGB "A"A4 |]
